build/img/social/whatsapp.svg

<svg width="14" height="14" viewBox="0 0 14 14" fill="none" xmlns="http://www.w3.org/2000/svg">
<path d="M11.875 2.0625C13.1875 3.375 14 5.09375 14 6.96875C14 10.7812 10.8125 13.9062 6.96875 13.9062C5.8125 13.9062 4.6875 13.5938 3.65625 13.0625L0 14L0.96875 10.4062C0.375 9.375 0.03125 8.1875 0.03125 6.9375C0.03125 3.125 3.15625 0 6.96875 0C8.84375 0 10.5938 0.75 11.875 2.0625ZM6.96875 12.7188C10.1562 12.7188 12.8125 10.125 12.8125 6.96875C12.8125 5.40625 12.1562 3.96875 11.0625 2.875C9.96875 1.78125 8.53125 1.1875 7 1.1875C3.8125 1.1875 1.21875 3.78125 1.21875 6.9375C1.21875 8.03125 1.53125 9.09375 2.09375 10.0312L2.25 10.25L1.65625 12.375L3.84375 11.7812L4.03125 11.9062C4.9375 12.4375 5.9375 12.7188 6.96875 12.7188ZM10.1562 8.40625C10.3125 8.5 10.4375 8.53125 10.4688 8.625C10.5312 8.6875 10.5312 9.03125 10.375 9.4375C10.2188 9.84375 9.53125 10.2188 9.21875 10.25C8.65625 10.3438 8.21875 10.3125 7.125 9.8125C5.375 9.0625 4.25 7.3125 4.15625 7.21875C4.0625 7.09375 3.46875 6.28125 3.46875 5.40625C3.46875 4.5625 3.90625 4.15625 4.0625 3.96875C4.21875 3.78125 4.40625 3.75 4.53125 3.75C4.625 3.75 4.75 3.75 4.84375 3.75C4.96875 3.75 5.09375 3.71875 5.25 4.0625C5.375 4.40625 5.75 5.25 5.78125 5.34375C5.8125 5.4375 5.84375 5.53125 5.78125 5.65625C5.46875 6.3125 5.09375 6.28125 5.28125 6.59375C5.96875 7.75 6.625 8.15625 7.65625 8.65625C7.8125 8.75 7.90625 8.71875 8.03125 8.625C8.125 8.5 8.46875 8.09375 8.5625 7.9375C8.6875 7.75 8.8125 7.78125 8.96875 7.84375C9.125 7.90625 9.96875 8.3125 10.1562 8.40625Z" fill="#707070"/>
</svg>

<svg width="14" height="14" fill="none" xmlns="http://www.w3.org/2000/svg"><path d="M11.875 2.063C13.188 3.375 14 5.092 14 6.968c0 3.812-3.188 6.937-7.031 6.937-1.157 0-2.282-.312-3.313-.844L0 14l.969-3.594A6.945 6.945 0 01.03 6.937C.031 3.126 3.156 0 6.97 0c1.875 0 3.625.75 4.906 2.063zM6.969 12.719c3.187 0 5.843-2.594 5.843-5.75 0-1.563-.656-3-1.75-4.094A5.697 5.697 0 007 1.187c-3.188 0-5.781 2.594-5.781 5.75 0 1.094.312 2.157.875 3.094l.156.219-.594 2.125 2.188-.594.187.125a5.78 5.78 0 002.938.813zm3.187-4.313c.156.094.281.125.313.219.062.063.062.406-.094.813-.156.406-.844.78-1.156.812-.563.094-1 .063-2.094-.438-1.75-.75-2.875-2.5-2.969-2.593-.093-.125-.687-.938-.687-1.813 0-.843.437-1.25.594-1.437a.586.586 0 01.468-.219h.313c.125 0 .25-.031.406.313.125.343.5 1.187.531 1.28.032.095.063.188 0 .313-.312.657-.687.625-.5.938.688 1.156 1.344 1.562 2.375 2.062.157.094.25.063.375-.031.094-.125.438-.531.531-.688.126-.187.25-.156.407-.093.156.062 1 .468 1.187.562z" fill="#707070"/></svg>
